X:581
T: IM SOMMER DA IST DIE SCHOENSTE ZEIT
N: E1889
O: Europa, Mitteleuropa, Deutschland, Weissenfels
R: Kinder - Lied, Spiel, Reigen
M: 2/4
L: 1/8
K: G
d | d2Bd | d2B
d | ccAc | B2z
d | d2Bd | d2B
d | ccAc | B2z
B | Accc | Bdd
d | ddcA | GGG
d | d2Bd | d2B
d | ccAA | G2z
d | d2Bd | d2B
d | ccAA | G2z

@@@ Tune index: 5265
